!!!COM: Henri Duparc
!!!CNT: Francais
!!!TXO: Francais
!!!OTL: La Vague et la Cloche
!!!LYR: Franc5ois Coppe/e
!!!ENC: Jacob Pegg
!!!YOR: Henri Duparc: Complete Songs for Voice and Piano
!!!YOR: New York: Dover publications, inc., 1995 
!!!YOR: ISBN 0-486-*28466-2
!!!ODT: 1871/
!!NB: Vocal melody and text only encoded.
**kern	**silbe
*clef G2	*
*k[f#]	*
*M3/4	*
*MM[allegro]	*
!! tempo indication: Assez vite et tumultueux
!! created: 6/23/03 15:37
!! last edited: 7/21/03 9:23
=5	=5
{8.g	{U-
16f#	-ne
4e	fois,
8g	ter-
8a	-ras-
=6	=6
4.b	-se/
8b	par
8b	un
8b	puis-
=7	=7
[2cc	-sant
8cc]	|
8cc	breu-
=8	=8
4g	-va-
8e}	-ge,}
8r	.
4r	.
=9	=9
{8b	{J'ai
8e	re^-
[4e	-ve/
8e]}	|}
8r	.
=10	=10
{8g	{que
8a	par-
4b	-mi
4b	les
=11	=11
4.cc	va-
8cc	-gues
8g	et
8g	le
=12	=12
2e}	bruit}
{8g	{De
8a	la
=13	=13
[2.b	mer,
=14	=14
4b]}	|}
4r	.
4r	.
=15	=15
*M9/8	*
{8.cc	{je
16cc	vo-
[8g	-guais
8g]	|
8a	sans
8a	fa-
4.b	-nal
=16	=16
4cc	dans
8b	la
2.a#}	nuit,}
=17	=17
{4.cc#	{Mor-
4.b	-ne
8b	ra-
4a#}	-meur,}
!! dot removed from previous note to correct timing
=18	=18
8r	.
{8dd#	{n'a-
8dd#	-yant
4ee	plus
8ccn	l'es-
[4.b	-poir
=19	=19
8b]	|
8g	du
8g	ri-
4.f#	-va-
8e}	-ge...}
8r	.
8r	.
!! 20-22 rest	
=23	=23
*M3/4	*
4r	.
4r	.
8r	.
{16b	{L'O-
16b	-ce/-
=24	=24
*M9/8	*
[4.cc	-an
4cc]	|
16d#	me
16d#	cra-
8.f#	-chait
8.f#	ses
=25	=25
4.cc#	ba-
4cc#	-ves
!! dot removed from prior note to correct timing (best guess)
8r	.
4f#	sur
8f#	le
=26	=26
[4.cc#	front,
4cc#]}	|}
8r	.
4r	.
{16cc#	{Et
16cc#	le
=27	=27
4.ee	vent
4e	me
8e	gla-
4f##	-c5ait
8f##	d'hor-
=28	=28
[4.g#	-reur
4g#]	|
8g#	jus-
4c#	-qu'aux
8f##	en-
=29	=29
4.g#	-trail-
4g#}	-les,}
8r	.
{4.cc#	{Les
=30	=30
[4.dd	va-
8.dd]	|
8.dd	-gues
8.a	s'e/-
8.b	-crou-
=31	=31
[4.cc#	-laient
4cc#]}	|}
8r	.
{4.cc#	{ain-
=32	=32
[4.dd	-si
4dd]	|
8dd	que
4cc#	des
8cc#	mu-
=33	=33
4.ccn	-rail-
4ccn}	-les}
8r	.
4r	.
8r	.
=34	=34
{8.cc	{A-
[8.cc	-vec
8.cc]	|
8.cc	ce
8.g	rhyth-
8.a	-me-
=35	=35
2.b}	-lent}
4r	.
8r	.
=36	=36
{4b	{qu'un
8b	si-
2.b	-lence
=37	=37
4b	in-
8b	-ter-
[4.b	-rompt...
8b]}	|}
8r	.
8r	.
!! 38-40 rest	
=41	=41
4r	.
8r	.
{2.b	{Puis,
=42	=42
4r	.
8r	.
[4.b	tout
4b]	|
8b	chan-
=43	=43
2.B}	-gea...}
4r	.
8r;	.
=44	=44
4r	.
8r	.
4r	.
8r	.
4r	.
{8B	{la
=45	=45
[4.c#	mer
4c#]	|
8r	.
4r	.
8r	.
=46	=46
8.d-	et
8.d-	sa
4.A-	noi-
4B-	-re
8B-	me^-
=47	=47
4.cn	-le/-
8cn}	-e}
8r	.
8r	.
4r	.
{8cn	{som-
=48	=48
2.c	-bre\-
8c}	-rent...}
8r	.
8r	.
=49	=49
4r	.
8r	.
4r	.
8r	.
8r	.
{8e	{sous
8f#	mes
=50	=50
[4.g#	pieds
4g#]}	|}
8r	.
{4g#	{s'ef-
8ee	-fon-
=51	=51
!!
[2.ee	-dra
4.ee_	|
!! dots added to both notes to correct timing. 
=52	=52
8ee]}	|}
8r	.
8r	.
{8.e	{le
8.e	plan-
8e	-cher
8e	de
8e	la
=53	=53
4.B	bar-
8B}	-que...}
8r	.
8r	.
4r	.
8r	.
!! 54-61 rest	
=61	=61
{[4.e	{Et
8e]	|
8e	j'e/-
8e	-tais
4d#}	seul}
8r	.
=62	=62
{8.e	{dans
8.e	un
4e	vieux
8e	clo-
4.b}	-cher,}
=63	=63
1r	.
8r	.
=64	=64
{4cc	{che-
8cc	-vau-
4.a	-chant
(8f#	a-
8g)	|
8a	-vec
=65	=65
4.b	rage
4g	u-
8g	-ne
4.f#	cloche
=66	=66
4e	e/-
8e	-bran-
4.B	-le/-
8B}	-e.}
8r	.
8r	.
=67	=67
1r	.
8r	.
=68	=68
8r	.
{8e	{J'e/-
8e	-trei-
8e	-gnais
8f#	la
8g	cri-
4.f#	-arde
=69	=69
8e	o-
8e	-pi-
8e	-ni-
4a	-a^-
8a	-tre-
4.f#}	-ment,}
=70	=70
8r	.
{8cc	{Con-
8cc	-vul-
8a	-sif
8r	.
8r	.
(8f#	et
8g)	|
8a	fer-
=71	=71
8b	-mant
8g	dans
8f#	l'ef-
4.e	-fort
4dn	mes
8c	pau-
=72	=72
4.B	-pie/-
8B}	-res.}
8r	.
8r	.
4r	.
8r	.
=73	=73
4r	.
8r	.
4r	.
8r	.
{4.b	{Le
=74	=74
!!dot added to following note to correct timing (best guess)
4.e	gron-
8f#	-de-
(8g	-ment
8a)	|
8cc	fai-
8b	-sait
8dd#	trem-
=75	=75
4ee	-bler
8b	les
(8g	viel-
8a)	|
8cc	-les
4b	pier-
8b}	-res,}
=76	=76
4r	.
8r	.
4r	.
8r	.
{4.b	{Tant
=77	=77
4e	j'ac-
8f#	-ti-
(8g	-vais
8a)	|
8cc	sans
4b	fin
8dd#	le
=78	=78
4ee	lourd
8b	ba-
(8g	-lan-
8a)	|
8cc	-ce-
4.b}	-ment.}
!! 79-81 rest	
=82	=82
4r	.
8r	.
4r	.
8r	.
{4.b	{Pour-
=83	=83
[4.cc	-quoi
8.cc]	|
8.cc	n'as~
8.g	~tu
8.a	pas
=84	=84
[4.b	dit,
8b]}	|}
8r	.
{8b	{o
[4.b	re^ve,
=85	=85
4.b_	|
4b]	|
8b	ou\
4ddn	Dieu
8cc	nous
=86	=86
4.b	me\-
8b}	-ne?..}
8r	.
8r	.
4r	.
8r	.
=87	=87
4.r	.
4.r	.
4.r	.
=88	=88
4.r	.
4.r	.
{4.b	{Pour-
=89	=89
[4.cc	-quoi
8.cc]	|
8.cc	n'as~
8.g	~tu
8.a	pas
=90	=90
[4.b	dit
4b]}	|}
8r	.
{[4.b	{s'ils
=91	=91
4.b]	|
4b	ne
8b	fi-
4dd	-ni-
8cc	-raient
=92	=92
[2.b	pas
4b]}	|}
8r	.
=93	=93
{4cc	{L'i-
8cc	-nu-
4.cc	-ti-
4b	-le
8b	tra-
=94	=94
[2.a#	-vail
4a#]}	|}
8r	.
=95	=95
{4.cc	{et
8.cc	l'e/-
8.cc	-ter-
4b	-nel
8b	fra-
=96	=96
4.a#	-cas
4a#}	|}
8r	.
{4a#	{dont
8a#	est
=97	=97
4.cc#	fai-
4cc#	-te
8cc#	la
4cc#	vie,
8ee	he/-
=98	=98
[4.ee	-las,
8ee]}	|}
8r	.
{8e	{la
4g	vie
8e	hu-
=99	=99
[2.B	-mai
4.B]	|
=100	=100
4e}	-ne!}
8r	.
4r	.
8r	.
4r	.
8r	.
*-	*-
